icons/shovel-two-color.svg

<?xml version="1.0" encoding="UTF-8"?><svg id="uuid-9a7ea724-f218-4824-8c2d-2f13a694eb9b" xmlns="http://www.w3.org/2000/svg" viewBox="0 0 50 50"><path d="M39.11,48.52c-1.12-1.25-3.41-3.49-6.55-4.95h.01c.55-.75,1.28-1.96,1.57-3.59,.1-.53,.13-1.02,.14-1.45v-9.36c-2.05,1.75-4.6,2.73-7.3,2.84h-1c-2.71-.11-5.25-1.09-7.3-2.84v9.36c0,.42,.04,.89,.13,1.4,.29,1.63,1.03,2.85,1.58,3.6h0c-3.26,1.54-5.49,3.96-6.53,5.1-.35,.38-.69,.78-1.01,1.19h27.3c-.33-.45-.68-.88-1.04-1.29Z" fill="#ffcd00"/><path d="M38.35,46.35c-1.05-1.18-3.1-3.19-5.9-4.71,.83-1.34,1.32-2.92,1.32-4.62v-10.51c0-.2-.12-.39-.31-.46-.19-.08-.4-.03-.55,.11-1.99,2.05-4.62,3.22-7.44,3.34V8.52L31.72,1.01c.12-.15,.15-.36,.07-.53-.08-.18-.26-.29-.45-.29h-12.71c-.19,0-.37,.11-.45,.29-.08,.17-.06,.38,.07,.53l6.24,7.51V29.5c-2.82-.13-5.45-1.29-7.44-3.34-.14-.15-.36-.19-.55-.11-.19,.08-.31,.26-.31,.46v10.51c0,1.69,.48,3.26,1.31,4.6-2.89,1.6-4.88,3.75-5.86,4.82-.6,.65-1.16,1.35-1.68,2.07-.11,.15-.12,.35-.04,.52,.09,.17,.26,.27,.44,.27h29.26c.18,0,.35-.1,.44-.26s.08-.36-.02-.51c-.51-.77-1.07-1.5-1.67-2.18ZM19.69,1.2h10.58l-5.29,6.36L19.69,1.2Zm-2.51,35.83v-9.36c2.05,1.75,4.6,2.73,7.3,2.84v4.09c0,.28,.22,.5,.5,.5s.5-.22,.5-.5v-4.09c2.71-.11,5.25-1.09,7.3-2.84v9.36c0,1.53-.45,2.96-1.22,4.17-2.17-1.03-4.73-1.72-7.6-1.53-2.1,.14-3.96,.72-5.58,1.49-.76-1.2-1.2-2.62-1.2-4.14Zm-5.83,11.28c.32-.41,.66-.81,1.01-1.19,1.52-1.66,5.57-6.05,11.67-6.46,6.72-.44,11.74,4.29,13.58,6.35,.36,.41,.71,.84,1.04,1.29H11.35Z"/></svg>

<svg id="f54b287b-299c-4d3b-bbfd-ad3f479a4ff5" data-name="ICONS" xmlns="http://www.w3.org/2000/svg" viewBox="0 0 50 50"><path d="M39.11,48.52a21.28,21.28,0,0,0-6.56-5h0A8.7,8.7,0,0,0,34.14,40a7.88,7.88,0,0,0,.14-1.46V29.16A11.92,11.92,0,0,1,27,32H26a11.9,11.9,0,0,1-7.3-2.84v9.36a7.93,7.93,0,0,0,.13,1.4,8.42,8.42,0,0,0,1.58,3.6h0a21.58,21.58,0,0,0-6.53,5.1c-.35.38-.69.77-1,1.18h27.3C39.82,49.36,39.47,48.93,39.11,48.52Z" fill="#fdd600"/><path d="M38.35,46.35a22.59,22.59,0,0,0-5.9-4.71A8.66,8.66,0,0,0,33.78,37V26.51a.49.49,0,0,0-.31-.46.51.51,0,0,0-.55.11,11,11,0,0,1-7.44,3.34v-21L31.72,1a.51.51,0,0,0,.07-.53A.5.5,0,0,0,31.34.2H18.62a.5.5,0,0,0-.45.28.49.49,0,0,0,.07.53l6.24,7.51v21A10.93,10.93,0,0,1,17,26.16a.51.51,0,0,0-.55-.11.49.49,0,0,0-.31.46V37a8.69,8.69,0,0,0,1.31,4.6,23.36,23.36,0,0,0-5.87,4.82,24.08,24.08,0,0,0-1.68,2.07.51.51,0,0,0,0,.52.48.48,0,0,0,.44.27H39.61a.51.51,0,0,0,.44-.26.49.49,0,0,0,0-.51A18.77,18.77,0,0,0,38.35,46.35ZM19.69,1.2H30.27L25,7.56ZM17.18,37V27.66a11.9,11.9,0,0,0,7.3,2.84v4.09a.5.5,0,0,0,1,0V30.5a11.92,11.92,0,0,0,7.3-2.84V37a7.72,7.72,0,0,1-1.22,4.17,14.89,14.89,0,0,0-13.18,0A7.71,7.71,0,0,1,17.18,37ZM11.35,48.3c.32-.41.66-.8,1-1.18,1.52-1.66,5.57-6,11.67-6.46C30.75,40.22,35.77,45,37.6,47c.37.41.72.84,1,1.28Z" fill="#231f20"/></svg>
